X: 36794
T: Sherry's Return
R: reel
M: 4/4
K: Emajor
|:e2 BA GBEB|FA=DA GE E2|GBef geag|fedc B4|
=dAdf eBef|gefe dfBA|(3GAB EB FA=DA|B=dAF GE E2:|
|:GBef geag|fBdf eBAF|GBef geag|fedc B3 c|
=dAdf eBef|gefe dfBA|(3GAB EB FA=DA|B=dAF GE E2:|

